!! 00000] TT[WS
!!!OTL: Taiping diao
!!!ARE: Asia, China,ÿShanxi Gaoping
!! Ethnic Group: Han
!! WI, 99
!!!SCT: J0116
!!!YEM: Copyright 1995, estate of Helmut Schaffrath.
**kern
*ICvox
*Ivox
*M2/4
*k[b-]
*F:
{8a
8cc
8dd
8cc
=1
4.cc
8ff
=2
8a
8g
8f
8d
=3
2g}
=4
{8.g
16g
8g
8a
=5
4cc
8dd
8cc
=6
4.a
8g
=7
8f
8g
8cc
8a
=8
2g}
=9
{8g
8a
4cc
=10
8dd
8cc
8a
8g
=11
4.f
8a
=12
8g
8a
8g
8f
=13
8d
8d
8f
8d
=14
2c}
=15
{8d
4d
8f
=16
4g
8a
8g
=17
2f
=18
8d
8f
8g
8a
=19
2c}
=20
{4d
8f
8d
=21
4.c
8d
=22
4c
4c
=23
2c}
==
!!!AGN: Xiaodiao. Qingge, Aisu
!!!ONB: ESAC (Essen Associative Code) Database: CHINA
!!!AMT: simple duple
!!!AIN: vox
!!!EED: Helmut Schaffrath
!!!EEV: 1.0
*-
